X:1
T:Jetty Howley's
L:1/8
M:6/8
I:linebreak $
K:G
V:1 treble 
V:1
|: E | D2 B BAB | D2 B BAB | D2 B BAB | BAB A2 D | G2 G BAG | EFG c2 B | AFD DEF |1$ GBA G2 :|2 %9
 GBA GBc |: d3 g2 f | e2 e d2 G | GBd dBG | cBc ABc | d3 g2 f | e2 e d2 G |$ GBd dBA |1 G3 GBc :|2 %18
 G3 G2 |: B | A/B/AF D2 B | A/B/AF D2 B | A/B/AG F/G/FE | D3 DEF |$ GFG BAG | EFG c2 B | AFD DEF | %27
 GBA G2 :| %28
